svg/emoji_u1f171.svg

<svg enable-background="new 0 0 128 128" viewBox="0 0 128 128" xmlns="http://www.w3.org/2000/svg"><linearGradient id="a" x1="64" x2="64" y1="5" y2="128.72" gradientUnits="userSpaceOnUse"><stop stop-color="#EF5350" offset="0"/><stop stop-color="#E0403E" offset=".5777"/><stop stop-color="#D32F2F" offset="1"/></linearGradient><path d="m116 124h-104c-4.42 0-8-3.58-8-8v-104c0-4.42 3.58-8 8-8h104c4.42 0 8 3.58 8 8v104c0 4.42-3.58 8-8 8z" fill="url(#a)"/><g opacity=".2"><path d="m116 7c2.76 0 5 2.24 5 5v104c0 2.76-2.24 5-5 5h-104c-2.76 0-5-2.24-5-5v-104c0-2.76 2.24-5 5-5h104m0-3h-104c-4.42 0-8 3.58-8 8v104c0 4.42 3.58 8 8 8h104c4.42 0 8-3.58 8-8v-104c0-4.42-3.58-8-8-8z" fill="#424242"/></g><g opacity=".2"><path d="m63.36 20c9.95 0 17.53 1.99 22.73 5.98s7.8 9.93 7.8 17.83c0 4.03-1.09 7.66-3.26 10.88-1.46 2.17-3.38 4-5.75 5.52-1.32 0.84-1.17 2.79 0.24 3.47 2.85 1.38 5.18 3.31 6.99 5.79 2.6 3.57 3.9 7.85 3.9 12.84 0 8.26-2.65 14.61-7.95 19.04s-12.88 6.65-22.76 6.65h-30.1c-1.1 0-2-0.9-2-2v-84c0-1.1 0.9-2 2-2h28.16m-12.86 37.05h12.99c4.75 0 8.47-1.08 11.15-3.23 2.68-2.16 4.02-5.21 4.02-9.16 0-4.35-1.24-7.49-3.72-9.43-2.48-1.93-6.34-2.9-11.57-2.9h-12.87c-1.1 0-2 0.9-2 2v20.72c0 1.1 0.89 2 2 2m0 38.62h14.98c4.79 0 8.54-1.18 11.24-3.55s4.05-5.66 4.05-9.87c0-9.11-4.67-13.76-14.02-13.96h-16.25c-1.1 0-2 0.9-2 2v23.38c0 1.11 0.89 2 2 2m12.86-78.67h-28.16c-2.76 0-5 2.24-5 5v84c0 2.76 2.24 5 5 5h30.1c10.55 0 18.85-2.47 24.68-7.35 5.98-5.01 9.02-12.19 9.02-21.34 0-5.62-1.51-10.54-4.47-14.61-1.77-2.43-3.99-4.42-6.63-5.94 2.08-1.54 3.82-3.35 5.21-5.39 2.51-3.71 3.78-7.94 3.78-12.56 0-8.84-3.02-15.64-8.97-20.21-5.72-4.38-13.98-6.6-24.56-6.6zm-11.86 18.33h11.87c4.53 0 7.8 0.76 9.73 2.27 1.73 1.35 2.56 3.66 2.56 7.06 0 3.02-0.95 5.25-2.9 6.82-2.12 1.71-5.24 2.57-9.27 2.57h-11.99v-18.72zm0 35.96h15.22c7.75 0.18 11.05 3.45 11.05 10.96 0 3.34-0.99 5.83-3.03 7.61-2.12 1.86-5.24 2.81-9.26 2.81h-13.98v-21.38z" fill="#424242"/></g><path d="m33.2 106v-84c0-1.1 0.9-2 2-2h28.16c9.95 0 17.53 1.99 22.73 5.98s7.8 9.93 7.8 17.83c0 4.03-1.09 7.66-3.26 10.88-1.46 2.17-3.38 4-5.75 5.52-1.32 0.84-1.17 2.79 0.24 3.47 2.85 1.38 5.18 3.31 6.99 5.79 2.6 3.57 3.9 7.85 3.9 12.84 0 8.26-2.65 14.61-7.95 19.04s-12.88 6.65-22.76 6.65h-30.1c-1.1 0-2-0.9-2-2zm15.3-50.95c0 1.1 0.9 2 2 2h12.99c4.75 0 8.47-1.08 11.15-3.23 2.68-2.16 4.02-5.21 4.02-9.16 0-4.35-1.24-7.49-3.72-9.43-2.48-1.93-6.34-2.9-11.57-2.9h-12.87c-1.1 0-2 0.9-2 2v20.72zm0 15.24v23.38c0 1.1 0.9 2 2 2h14.98c4.79 0 8.54-1.18 11.24-3.55s4.05-5.66 4.05-9.87c0-9.11-4.67-13.76-14.02-13.96h-16.25c-1.11 0-2 0.9-2 2z" fill="#FAFAFA"/></svg>

<svg width="128" height="128" style="enable-background:new 0 0 128 128;" xmlns="http://www.w3.org/2000/svg" xmlns:xlink="http://www.w3.org/1999/xlink">
  <g>
    <linearGradient id="SVGID_1_" gradientUnits="userSpaceOnUse" x1="64" x2="64" y1="5" y2="128.7217">
      <stop offset="0" style="stop-color:#EF5350"/>
      <stop offset="0.5777" style="stop-color:#E0403E"/>
      <stop offset="1" style="stop-color:#D32F2F"/>
    </linearGradient>
    <path d="M116,124H12c-4.42,0-8-3.58-8-8V12c0-4.42,3.58-8,8-8h104c4.42,0,8,3.58,8,8v104 C124,120.42,120.42,124,116,124z" style="fill:url(#SVGID_1_);"/>
    <g style="opacity:0.2;">
      <path d="M116,7c2.76,0,5,2.24,5,5v104c0,2.76-2.24,5-5,5H12c-2.76,0-5-2.24-5-5V12c0-2.76,2.24-5,5-5H116 M116,4H12c-4.42,0-8,3.58-8,8v104c0,4.42,3.58,8,8,8h104c4.42,0,8-3.58,8-8V12C124,7.58,120.42,4,116,4L116,4z" style="fill:#424242;"/>
    </g>
    <g style="opacity:0.2;">
      <path d="M63.36,20c9.95,0,17.53,1.99,22.73,5.98c5.2,3.99,7.8,9.93,7.8,17.83c0,4.03-1.09,7.66-3.26,10.88 c-1.46,2.17-3.38,4-5.75,5.52c-1.32,0.84-1.17,2.79,0.24,3.47c2.85,1.38,5.18,3.31,6.99,5.79c2.6,3.57,3.9,7.85,3.9,12.84 c0,8.26-2.65,14.61-7.95,19.04c-5.3,4.43-12.88,6.65-22.76,6.65H35.2c-1.1,0-2-0.9-2-2V22c0-1.1,0.9-2,2-2H63.36 M50.5,57.05 h12.99c4.75,0,8.47-1.08,11.15-3.23c2.68-2.16,4.02-5.21,4.02-9.16c0-4.35-1.24-7.49-3.72-9.43c-2.48-1.93-6.34-2.9-11.57-2.9 H50.5c-1.1,0-2,0.9-2,2v20.72C48.5,56.15,49.39,57.05,50.5,57.05 M50.5,95.67h14.98c4.79,0,8.54-1.18,11.24-3.55 c2.7-2.37,4.05-5.66,4.05-9.87c0-9.11-4.67-13.76-14.02-13.96H50.5c-1.1,0-2,0.9-2,2v23.38C48.5,94.78,49.39,95.67,50.5,95.67 M63.36,17H35.2c-2.76,0-5,2.24-5,5v84c0,2.76,2.24,5,5,5H65.3c10.55,0,18.85-2.47,24.68-7.35C95.96,98.64,99,91.46,99,82.31 c0-5.62-1.51-10.54-4.47-14.61c-1.77-2.43-3.99-4.42-6.63-5.94c2.08-1.54,3.82-3.35,5.21-5.39c2.51-3.71,3.78-7.94,3.78-12.56 c0-8.84-3.02-15.64-8.97-20.21C82.2,19.22,73.94,17,63.36,17L63.36,17z M51.5,35.33h11.87c4.53,0,7.8,0.76,9.73,2.27 c1.73,1.35,2.56,3.66,2.56,7.06c0,3.02-0.95,5.25-2.9,6.82c-2.12,1.71-5.24,2.57-9.27,2.57H51.5V35.33L51.5,35.33z M51.5,71.29 h15.22c7.75,0.18,11.05,3.45,11.05,10.96c0,3.34-0.99,5.83-3.03,7.61c-2.12,1.86-5.24,2.81-9.26,2.81H51.5V71.29L51.5,71.29z" style="fill:#424242;"/>
    </g>
    <path d="M33.2,106V22c0-1.1,0.9-2,2-2h28.16c9.95,0,17.53,1.99,22.73,5.98c5.2,3.99,7.8,9.93,7.8,17.83 c0,4.03-1.09,7.66-3.26,10.88c-1.46,2.17-3.38,4-5.75,5.52c-1.32,0.84-1.17,2.79,0.24,3.47c2.85,1.38,5.18,3.31,6.99,5.79 c2.6,3.57,3.9,7.85,3.9,12.84c0,8.26-2.65,14.61-7.95,19.04c-5.3,4.43-12.88,6.65-22.76,6.65H35.2C34.1,108,33.2,107.1,33.2,106z M48.5,55.05c0,1.1,0.9,2,2,2h12.99c4.75,0,8.47-1.08,11.15-3.23c2.68-2.16,4.02-5.21,4.02-9.16c0-4.35-1.24-7.49-3.72-9.43 c-2.48-1.93-6.34-2.9-11.57-2.9H50.5c-1.1,0-2,0.9-2,2V55.05z M48.5,70.29v23.38c0,1.1,0.9,2,2,2h14.98 c4.79,0,8.54-1.18,11.24-3.55c2.7-2.37,4.05-5.66,4.05-9.87c0-9.11-4.67-13.76-14.02-13.96H50.5 C49.39,68.29,48.5,69.19,48.5,70.29z" style="fill:#FAFAFA;"/>
  </g>
</svg>
